flags/au-nt.svg

<svg xmlns="http://www.w3.org/2000/svg" width="512" height="512" fill="none"><g clip-path="url(#a)"><path fill="#333" d="M0 0h171l64 256-64 256H0z"/><path fill="var(--flag-palette-gold, #ff9811)" d="M171 0h341v512H171z"/><path fill="#333" d="M341 282c6-3 13-3 18 0-5-3-6-11-5-17 2-6 7-13 13-14-6 1-13-3-17-7-4-5-6-13-4-19-2 6-10 9-16 9s-13-3-16-9c2 6 0 14-4 19-3 4-10 8-16 7 6 1 10 8 12 14 1 6 0 14-5 17 5-3 13-3 18 0 6 2 11 8 11 15 0-7 5-13 11-15"/><path fill="#EEE" d="M358 237c14 18 75 0 45-37-29-37-60 18-45 37"/><path fill="#EEE" d="M330 224c23 0 47-59 0-59s-23 59 0 59"/><path fill="#EEE" d="M303 237c14-19-17-74-46-37-30 37 31 55 45 37zm42 53c-21 11-17 73 26 53 42-20-5-63-26-53"/><path fill="#EEE" d="M315 290c-21-10-68 33-26 53 43 20 47-42 26-53m49-23c-5 22 47 58 57 13 11-46-52-36-57-13"/><path fill="#EEE" d="M296 267c-6-23-68-33-57 13 10 45 62 9 57-13m-160-78 7 15 16-4-7 15 12 10-15 3v17l-13-11-13 11v-17l-16-3 13-10-7-15 16 4zm-45-43 7 15 16-4-7 15 12 10-15 3v17l-13-11-13 11v-17l-16-3 13-10-7-15 16 4zm19 92 6 17h17l-14 11 5 17-14-11-14 11 5-17-14-11h18zm-70-34 7 15 16-4-7 15 12 10-16 3v17l-12-11-13 11v-17l-16-3 13-10-7-15 16 4zm51 99-6 17-17-8 8 17-17 6 17 6-8 17 17-8 6 17 6-17 17 8-8-17 17-6-17-6 8-17-17 8z"/></g><defs><clipPath id="a"><path fill="#fff" d="M0 0h512v512H0z"/></clipPath></defs></svg>

<svg width="512" height="512" viewBox="0 0 512 512" fill="none" xmlns="http://www.w3.org/2000/svg">
<path d="M0 0H171L235 256L171 512H0V0Z" fill="var(--flag-palette-black, #333333)"/>
<path d="M171 0H512V512H171V0Z" fill="var(--flag-palette-gold, #ff9811)"/>
<path d="M341 282C347 279 354 279 359 282C354 279 353 271 354 265C356 259 361 252 367 251C361 252 354 248 350 244C346 239 344 231 346 225C344 231 336 234 330 234C324 234 317 231 314 225C316 231 314 239 310 244C307 248 300 252 294 251C300 252 304 259 306 265C307 271 306 279 301 282C306 279 314 279 319 282C325 284 330 290 330 297C330 290 335 284 341 282Z" fill="var(--flag-palette-black, #333333)"/>
<path d="M358.001 237C372.001 255 433.001 237 403.001 200C374.001 163 343.001 218 358.001 237Z" fill="var(--flag-palette-white, #eeeeee)"/>
<path d="M330.001 224C353.001 224 377.001 165 330.001 165C283.001 165 307.001 224 330.001 224Z" fill="var(--flag-palette-white, #eeeeee)"/>
<path d="M303 237C317 218 286 163 257 200C227 237 288 255 302 237H303ZM345 290C324 301 328 363 371 343C413 323 366 280 345 290Z" fill="var(--flag-palette-white, #eeeeee)"/>
<path d="M314.999 290C293.999 280 246.999 323 288.999 343C331.999 363 335.999 301 314.999 290ZM363.999 267C358.999 289 410.999 325 420.999 280C431.999 234 368.999 244 363.999 267Z" fill="var(--flag-palette-white, #eeeeee)"/>
<path d="M296 267C290 244 228 234 239 280C249 325 301 289 296 267ZM136 189L143 204L159 200L152 215L164 225L149 228V245L136 234L123 245V228L107 225L120 215L113 200L129 204L136 189ZM91 146L98 161L114 157L107 172L119 182L104 185V202L91 191L78 202V185L62 182L75 172L68 157L84 161L91 146ZM110 238L116 255H133L119 266L124 283L110 272L96 283L101 266L87 255H105L110 238ZM40 204L47 219L63 215L56 230L68 240L52 243V260L40 249L27 260V243L11 240L24 230L17 215L33 219L40 204ZM91 303L85 320L68 312L76 329L59 335L76 341L68 358L85 350L91 367L97 350L114 358L106 341L123 335L106 329L114 312L97 320L91 303Z" fill="var(--flag-palette-white, #eeeeee)"/>
</svg>
